!!!COM:	la Rue, Pierre de
!!!CDT:	~1452///-1518/11/20
!!!OPR:	Missa O gloriosa domina
!!!ONM:	2
!!!OTL:	Gloria
!!!AGN:	Mass; Gloria
!!!SCT:	Rue1021b
!!!SCA:	Rue1021b
!!!voices-OPR:	4
!!!voices:	4
**kern	**kern	**kern	**kern
*staff4	*staff3	*staff2	*staff1
*Ivox	*Ivox	*Ivox	*Ivox
*I"Bassus	*I"Tenor	*I"Contra	*I"Discantus
*I'B	*I'T	*I'C	*I'D
*>[A,B]	*>[A,B]	*>[A,B]	*>[A,B]
*>A	*>A	*>A	*>A
*clefF4	*clefGv2	*clefG2	*clefG2
*k[]	*k[]	*k[]	*k[]
*M2/1	*M2/1	*M2/1	*M2/1
*met(C)	*met(C)	*met(C)	*met(C)
!!section: Et in terra pax
!!!OMD: Et in terra pax
=1-	=1-	=1-	=1-
0r	0d	0r	0dd
=2	=2	=2	=2
0r	1d	0r	0a
.	[1A	.	.
=3	=3	=3	=3
0r	2A/]	0r	2cc\
.	2B\	.	2dd\
.	1c	.	1ee
=4	=4	=4	=4
0r	0d	0r	1ff
.	.	.	2r
.	.	.	2dd\
=5	=5	=5	=5
0r	2r	0r	2dd\
.	2f\	.	2cc\
.	2f\	.	2dd\
.	2e\	.	4cc\
.	.	.	4b\
=6	=6	=6	=6
0r	2f\	0r	1a
.	4e\	.	.
.	4d\	.	.
.	1c	.	2r
.	.	.	[2cc\
=7	=7	=7	=7
0r	2r	0r	2cc\]
.	1e	.	2cc\
.	.	.	2.b\
.	2e\	.	.
.	.	.	4cc\
=8	=8	=8	=8
0r	2.d\	0r	2dd\
.	.	.	2.a/
.	4e\	.	.
.	2f\	.	.
.	.	.	4b\
.	[2c\	.	4cc\
.	.	.	4dd\
=9	=9	=9	=9
0r	4c\]	0r	1ee
.	4d\	.	.
.	4e\	.	.
.	4f\	.	.
.	2g\	.	2ee\
.	[2a\	.	[2ff\
=10	=10	=10	=10
1d	4a\]	1r	2ff\]
.	4g\	.	.
.	4f\	.	2.ee\
.	4e\	.	.
2d\	1f	1a	.
.	.	.	4dd\
2d\	.	.	2dd\
=11	=11	=11	=11
1A	0e	2a/	0ee
.	.	2a/	.
2r	.	1e	.
2A\	.	.	.
=12	=12	=12	=12
2.A\	0r	2r	0r
.	.	2e/	.
4B\	.	.	.
2c\	.	2e/	.
2d\	.	2f/	.
=13	=13	=13	=13
2.e\	0r	2.g/	0r
4c\	.	4e/	.
2f\	.	2a/	.
[2e\	.	4g/	.
.	.	4f/	.
=14	=14	=14	=14
2e\]	0r	4e/	0r
.	.	4d/	.
1d	.	2f/	.
.	.	1e	.
2c#i\	.	.	.
=15	=15	=15	=15
1d	0r	2r	0r
.	.	2d/	.
2r	.	2d/	.
2A\	.	[2f/	.
=16	=16	=16	=16
2A\	0r	4f/]	0r
.	.	4e/	.
2.c\	.	4e/	.
.	.	4d/	.
.	.	2c/	.
4B\	.	.	.
4B\	.	[2g/	.
4A\	.	.	.
=17	=17	=17	=17
2G\	0r	2g/]	0r
1c	.	4f/	.
.	.	4e/	.
.	.	2d/	.
2B\	.	2d/	.
=18	=18	=18	=18
2A\	0r	2c/	0r
4G\	.	2.e/	.
4F\	.	.	.
1E	.	.	.
.	.	4f/	.
.	.	4g/	.
.	.	4e/	.
=19	=19	=19	=19
2D\	0r	2f/	0r
2.A\	.	4e/	.
.	.	4d/	.
.	.	4c/	.
4B\	.	4d/	.
4c\	.	4e/	.
4A\	.	4f/	.
=20	=20	=20	=20
2B-i\	0r	2g/	0r
4A\	.	1a	.
4G\	.	.	.
4F\	.	.	.
4G\	.	.	.
4A\	.	4g/	.
4Bni\	.	4f/	.
=21	=21	=21	=21
2c\	0r	2e/	0r
2d\	.	1a	.
1B	.	.	.
.	.	2g#i/	.
=22	=22	=22	=22
[0A	1e	[0a	1r
.	2e\	.	1cc
.	[2e\	.	.
=23	=23	=23	=23
0A_	2e\]	0a_	2cc\
.	2f\	.	1cc
.	2e\	.	.
.	[2f\	.	2cc\
=24	=24	=24	=24
0A]	2f\]	0a]	2cc\
.	4e\	.	2cc\
.	4d\	.	.
.	2e\	.	2cc\
.	2e\	.	4dd\
.	.	.	4cc\
=25	=25	=25	=25
1r	1d	0r	0dd
2r	1g	.	.
[2G\	.	.	.
=26	=26	=26	=26
2G\]	2g\	0r	1b
2G\	1g	.	.
1G	.	.	2b\
.	2g\	.	[2b\
=27	=27	=27	=27
2G\	2g\	0r	2b\]
2F\	2a\	.	2cc\
2G\	2g\	.	2b\
2F\	[2a\	.	[2cc\
=28	=28	=28	=28
1A	2a\]	1r	2cc\]
.	4g#i\	.	4b\
.	4f#i\	.	4a/
1E	2.g#i\	1e	1b
.	4a\	.	.
=29	=29	=29	=29
2.A\	0a	2e/	[0a
.	.	1e	.
4B\	.	.	.
2c\	.	.	.
2d\	.	2f/	.
=30	=30	=30	=30
2c\	0r	2e/	0a]
1d	.	2.f/	.
.	.	4e/	.
4c\	.	2d/	.
4B\	.	.	.
=31	=31	=31	=31
2.A\	0r	2c/	0r
.	.	2f/	.
4B\	.	.	.
2c\	.	2e/	.
2d\	.	[2f/	.
=32	=32	=32	=32
2A\	0r	2f/]	0r
1d	.	4e/	.
.	.	4d/	.
.	.	1e	.
2c#i\	.	.	.
=33	=33	=33	=33
[0d	0r	2d/	1a
.	.	1f	.
.	.	.	2a/
.	.	2f/	[2a/
=34	=34	=34	=34
0d]	0r	2f/	2a/]
.	.	2g/	2b\
.	.	4a/	2a/
.	.	4g/	.
.	.	4f/	[2b\
.	.	4e/	.
=35	=35	=35	=35
1r	0r	2d/	2b\]
.	.	2.g/	4a/
.	.	.	4g/
1d	.	.	1a
.	.	4f#i/	.
.	.	2f#i/	.
=36	=36	=36	=36
2G\	1d	0g	2g/
1G	.	.	1b
.	2d\	.	.
[2G\	[2d\	.	2b\
=37	=37	=37	=37
2G\]	2d\]	0r	2b\
2c\	2e\	.	2cc\
2B\	2d\	.	4dd\
.	.	.	4cc\
2G\	[2e\	.	4b\
.	.	.	4a/
=38	=38	=38	=38
1c	2e\]	1r	2g/
.	4d\	.	2.cc\
.	4c\	.	.
1G	1d	1g	.
.	.	.	4b\
.	.	.	2b\
=39	=39	=39	=39
2r	0c	2g/	0cc
1c	.	1g	.
4B\	.	[2g/	.
4A\	.	.	.
=40	=40	=40	=40
2G\	0r	2g/]	0r
2F\	.	2a/	.
2.c\	.	2g/	.
.	.	[2a/	.
4d\	.	.	.
=41	=41	=41	=41
2e\	0r	4a/]	0r
.	.	4g/	.
1f	.	2f/	.
.	.	1g	.
2e\	.	.	.
=42	=42	=42	=42
1f	1a	0f	2r
.	.	.	2cc\
1F	2a\	.	2cc\
.	[2a\	.	2cc\
=43	=43	=43	=43
0r	2a\]	0r	2.cc\
.	2a\	.	.
.	.	.	4dd\
.	2g\	.	2ee\
.	[2a\	.	2ff\
=44	=44	=44	=44
1r	2a\]	0r	2cc\
.	4g\	.	1ff
.	4f\	.	.
2c\	1g	.	.
2c\	.	.	2ee\
=45	=45	=45	=45
2.d\	0f	2a/	0ff
.	.	2.a/	.
4c\	.	.	.
2B\	.	.	.
.	.	4g/	.
2A\	.	2f/	.
=46	=46	=46	=46
2G\	1r	2e/	1r
2F\	.	2d/	.
1E	2g\	4c/	1ee
.	.	4B/	.
.	2g\	2c/	.
=47	=47	=47	=47
0D	2.a\	2r	2.ff\
.	.	1d	.
.	4g\	.	4ee\
.	2f\	.	2dd\
.	2e\	2A/	2cc\
=48	=48	=48	=48
0G	2d\	2B/	2b\
.	2c\	2c/	2a/
.	1B	1d	1g
=49	=49	=49	=49
1D	1A	2r	1f
.	.	2d/	.
1D	2r	2A/	2r
.	2A/	[2d/	2f/
=50	=50	=50	=50
2.G\	2B\	2d/]	2g/
.	2B\	4c/	2g/
4F\	.	4B/	.
1E	2.G/	2c/	2.g/
.	.	4d/	.
.	4A/	4c/	4e/
=51	=51	=51	=51
1D	1A	1d	1f
2r	2r	2r	2r
2D\	2A/	2d/	2f/
=52	=52	=52	=52
1G	2B\	1d	2g/
.	1d	.	2.b-i\
1G	.	1B	.
.	.	.	4a/
.	4c\	.	4a/
.	4B\	.	4g/
=53	=53	=53	=53
[0D	2d\	1A	1f
.	2d\	.	.
.	[1A	2r	1f
.	.	2a/	.
=54	=54	=54	=54
0D]	0A]	2a/	2r
.	.	2a/	2f/
.	.	1a	2f/
.	.	.	2f/
=55	=55	=55	=55
2r	0r	2g/	2e/
2D\	.	1a	2.f/
2D\	.	.	.
.	.	.	4g/
2D\	.	4g/	4a/
.	.	4f/	4b\
=56	=56	=56	=56
2.A\	0r	2e/	2cc\
.	.	1f	2a/
4F\	.	.	.
1G	.	.	1b-i
.	.	2e/	.
=57	=57	=57	=57
1F	1c	0f	[0a
2r	2d\	.	.
2D\	2d\	.	.
=58	=58	=58	=58
2C/	2e\	1r	0a]
2.D\	1f	.	.
.	.	2r	.
4E\	.	.	.
4F\	4e\	2a/	.
4G\	4d\	.	.
=59	=59	=59	=59
2A\	2c\	2a/	0r
2F\	1f	2a/	.
1G	.	1b-i	.
.	2e\	.	.
=60	=60	=60	=60
1F	2.f\	1a	2r
.	.	.	1a
.	4e\	.	.
1F	1c	1f	.
.	.	.	2a/
=61	=61	=61	=61
2C/	2r	2e/	2g/
2.F\	2c\	2f/	2.a/
.	1f	1d	.
4G\	.	.	4b\
4A\	.	.	4cc\
4B\	.	.	4dd\
=62	=62	=62	=62
2c\	2e\	2c/	2ee\
2A\	1a	2e/	2cc\
1B-i	.	4d/	1dd
.	.	4c/	.
.	2g\	2d/	.
=63	=63	=63	=63
2A\	2a\	2e/	2cc\
1F	1A	1a	1ff
2F\	2A/	2a/	2ff\
=64	=64	=64	=64
2E\	2B\	2g/	2gg\
2.F\	2.A/	1a	1ff
4G\	4B\	.	.
4A\	4c\	4g/	4ee\
4B\	4d\	4f/	4dd\
=65	=65	=65	=65
2c\	2e\	2e/	2cc\
2A\	2c\	2.a/	2.ff\
1B-i	1d	.	.
.	.	4g/	4ee\
.	.	2g/	[2dd\
=66	=66	=66	=66
0A	0e	0a	2dd\]
.	.	.	4cc#i\
.	.	.	4b\
.	.	.	1cc#i
=67	=67	=67	=67
2r	0d	2r	2dd\
2D\	.	2f/	2a/
2G\	.	2g/	2b-i\
2D\	.	2f/	[2a/
=68	=68	=68	=68
0G	1d	1.b-i	2a/]
.	.	.	1g
.	2r	.	.
.	2d\	4a/	4f/
.	.	4g/	4e/
=69	=69	=69	=69
[0Dl	2d\	1a	[0fl
.	2A/	.	.
.	1B-i	1d	.
=70	=70	=70	=70
*	*	*^	*
0D]	0Al	0dl\	0al/	0f]
*	*	*v	*v	*
!!LO:LB:i:g=z
=71||	=71||	=71||	=71||
*>B	*>B	*>B	*>B
*clefF4	*clefGv2	*clefG2	*clefG2
*k[]	*k[]	*k[]	*k[]
*M2/1	*M2/1	*M2/1	*M2/1
*met(C2)	*met(C2)	*met(C2)	*met(C2)
!!section: Qui tollis
!!!OMD: Qui tollis
1d	1r	0r	0r
[1d	1f	.	.
=72.	=72.	=72.	=72.
2d\]	1.f	0r	0r
4c\	.	.	.
4B\	.	.	.
1A	.	.	.
.	4e\	.	.
.	4d\	.	.
=73	=73	=73	=73
2r	0c	0r	0r
2A\	.	.	.
2A\	.	.	.
[2A\	.	.	.
=74.	=74.	=74.	=74.
2A\]	2r	0r	0r
2.c\	2e\	.	.
.	2e\	.	.
4B\	.	.	.
4A\	[2e\	.	.
4G\	.	.	.
=75	=75	=75	=75
2A\	2e\]	0r	0r
4G\	2.g\	.	.
4F\	.	.	.
1E	.	.	.
.	4f\	.	.
.	4e\	.	.
.	4d\	.	.
=76.	=76.	=76.	=76.
1A	4f\	0r	0r
.	4e\	.	.
.	4d\	.	.
.	4c\	.	.
1G	1B	.	.
=77	=77	=77	=77
2r	0A	0r	0r
2A\	.	.	.
2A\	.	.	.
[2c\	.	.	.
=78.	=78.	=78.	=78.
4c\]	1r	0r	0r
4B\	.	.	.
4A\	.	.	.
4G\	.	.	.
4A\	1a	.	.
4G\	.	.	.
4F\	.	.	.
4E\	.	.	.
=79	=79	=79	=79
1F	1a	0r	0r
2E\	2.g\	.	.
[2e\	.	.	.
.	4e\	.	.
=80.	=80.	=80.	=80.
2e\]	1f	0r	0r
2d\	.	.	.
2c\	2e\	.	.
2A\	[2a\	.	.
=81	=81	=81	=81
4B\	4a\]	0r	0r
4c\	4g\	.	.
4d\	2f\	.	.
4B\	.	.	.
2.c\	4e\	.	.
.	4f\	.	.
.	4g\	.	.
4B\	4e\	.	.
=82.	=82.	=82.	=82.
2A\	2f\	1r	0r
2G\	1e	.	.
1F	.	1a	.
.	2d\	.	.
=83	=83	=83	=83
[0E	1.e	2g/	0r
.	.	1g	.
.	4d\	4f/	.
.	4c\	4e/	.
=84.	=84.	=84.	=84.
0E]	2B\	2g/	0r
.	2c\	2.g/	.
.	2B\	.	.
.	.	4a/	.
.	[2e\	4b\	.
.	.	4cc\	.
=85	=85	=85	=85
0r	4e\]	2b\	1r
.	4d\	.	.
.	2c\	1a	.
.	1B	.	1dd
.	.	2g#i/	.
=86.	=86.	=86.	=86.
0r	[0A	1.a	1cc
.	.	.	2cc\
.	.	4g/	4b\
.	.	4f/	4a/
=87	=87	=87	=87
0r	0A_	2e/	2cc\
.	.	2f/	2.cc\
.	.	2e/	.
.	.	.	4dd\
.	.	[2a/	4ee\
.	.	.	4ff\
=88.	=88.	=88.	=88.
0r	0A]	4a/]	2ee\
.	.	4g/	.
.	.	2f/	1dd
.	.	1e	.
.	.	.	2cc#i\
=89	=89	=89	=89
0r	0r	0d	1dd
.	.	.	2r
.	.	.	2dd\
=90.	=90.	=90.	=90.
0r	0r	2r	1ff
.	.	2d/	.
.	.	1a	2ff\
.	.	.	[2ff\
=91	=91	=91	=91
0r	0r	2a/	2ff\]
.	.	1a	4ee\
.	.	.	4dd\
.	.	.	2ff\
.	.	4g/	2ff\
.	.	4f/	.
=92.	=92.	=92.	=92.
0r	0r	2a/	2cc\
.	.	4g/	2a/
.	.	4f/	.
.	.	2.e/	2.cc\
.	.	4f/	4dd\
=93	=93	=93	=93
0r	0r	2g/	2ee\
.	.	2.a/	2.ff\
.	.	4g/	4ee\
.	.	4f/	4dd\
.	.	4e/	4cc\
=94.	=94.	=94.	=94.
0r	0r	2.f/	1dd
.	.	4e/	.
.	.	2c/	[1ee
.	.	2A/	.
=95	=95	=95	=95
0r	0r	2.c/	2ee\]
.	.	.	4dd\
.	.	4d/	4cc\
.	.	2e/	2b\
.	.	[2f/	[2a/
=96.	=96.	=96.	=96.
0r	1.a	4f/]	4a/]
.	.	4e/	4g/
.	.	4d/	4f/
.	.	4c/	4e/
.	.	1d	1f
.	2a\	.	.
=97	=97	=97	=97
[0E	0g	0e	1e
.	.	.	2r
.	.	.	[2ee\
=98.	=98.	=98.	=98.
1E]	1g	2r	2ee\]
.	.	1e	2ee\
1E	1g	.	2ee\
.	.	2e/	4dd\
.	.	.	4cc\
=99	=99	=99	=99
1E	1g	2e/	0b
.	.	4d/	.
.	.	4c/	.
2r	1g	2B/	.
2E\	.	2e/	.
=100.	=100.	=100.	=100.
2E\	2g\	2e/	2r
1G	4f\	2e/	2b\
.	4e\	.	.
.	2.d\	1g	2b\
4F\	.	.	[2dd\
4E\	4e\	.	.
=101	=101	=101	=101
2D\	2f\	0a	2dd\]
2E\	1e	.	4cc\
.	.	.	4b\
1F	.	.	2.a/
.	2d\	.	.
.	.	.	4b\
=102.	=102.	=102.	=102.
2.E\	[0e	1g	4cc\
.	.	.	4dd\
.	.	.	2.ee\
4F\	.	.	.
2G\	.	2g/	.
.	.	.	4dd\
2A\	.	[2e/	2cc\
=103	=103	=103	=103
2E\	0e_	4e/]	2b\
.	.	4d/	.
1A	.	4c/	2a/
.	.	4B/	.
.	.	2A/	2cc\
4G\	.	[2e/	4b\
4F\	.	.	4a/
=104.	=104.	=104.	=104.
2G\	0e]	4e/]	2b\
.	.	4d/	.
2A\	.	2c/	1a
1E	.	1B	.
.	.	.	2g#i/
=105	=105	=105	=105
0A	1r	0A	0a
.	1e	.	.
=106.	=106.	=106.	=106.
1r	2.e\	0r	0r
.	4g\	.	.
1A	1f	.	.
=107	=107	=107	=107
2.A\	1e	0r	0r
4c\	.	.	.
1B	2r	.	.
.	2g\	.	.
=108.	=108.	=108.	=108.
1A	2f\	0r	0r
.	2e\	.	.
2r	2g\	.	.
2c\	4f\	.	.
.	4e\	.	.
=109	=109	=109	=109
2B\	2d\	0r	0r
2A\	2.c\	.	.
2c\	.	.	.
.	4d\	.	.
4B\	4e\	.	.
4A\	4f\	.	.
=110.	=110.	=110.	=110.
2G\	2g\	0r	0r
2.F\	1a	.	.
4G\	.	.	.
4A\	2f\	.	.
4B\	.	.	.
=111	=111	=111	=111
2c\	4g\	0r	0r
.	4f\	.	.
1d	4e\	.	.
.	4d\	.	.
.	1e	.	.
2c#i\	.	.	.
=112.	=112.	=112.	=112.
1d	[0d	0f	0a
2r	.	.	.
2D\	.	.	.
=113	=113	=113	=113
2D\	0d]	1f	1a
2.D\	.	.	.
.	.	2f/	1a
4E\	.	.	.
4F\	.	[2f/	.
4G\	.	.	.
=114.	=114.	=114.	=114.
2A\	2r	2f/]	0a
2D\	2d\	4e/	.
.	.	4d/	.
1A	2d\	1e	.
.	2c\	.	.
=115	=115	=115	=115
0D	2.d\	1d	2r
.	.	.	2dd\
.	4c\	.	.
.	2A/	2r	2dd\
.	[2f\	2d/	[2dd\
=116.	=116.	=116.	=116.
2r	2f\]	2d/	2dd\]
2d\	2f\	2.d/	4cc\
.	.	.	4b\
2d\	2f\	.	1a
.	.	4e/	.
[2d\	[2f\	4f/	.
.	.	4g/	.
=117	=117	=117	=117
2d\]	2f\]	2a/	1a
4c\	4e\	1g	.
4B\	4d\	.	.
2A\	2c\	.	1a
2A\	4d\	2f#i/	.
.	4c\	.	.
=118.	=118.	=118.	=118.
0G	0d	1g	1b
.	.	2r	2r
.	.	2g/	2b\
=119	=119	=119	=119
2r	1r	2g/	2b\
2G\	.	2.g/	2.b\
2G\	2r	.	.
.	.	4a/	4cc\
[2G\	[2d\	[2b\	2dd\
=120.	=120.	=120.	=120.
4G\]	2d\]	2b\]	1g
4A\	.	.	.
2B\	2d\	1g	.
2.E\	1e	.	1b
.	.	[2g/	.
4F\	.	.	.
=121	=121	=121	=121
0G	1d	2g/]	2b\
.	.	4f/	2.dd\
.	.	4e/	.
.	2.B\	1d	.
.	.	.	4cc\
.	.	.	4b\
.	4c\	.	4a/
=122.	=122.	=122.	=122.
1G	2d\	1g	2b\
.	1e	.	4cc\
.	.	.	4b\
2A\	.	1e	[1cc
[2A\	2c\	.	.
=123	=123	=123	=123
2A\]	0c	1.a	2cc\]
2F\	.	.	2a/
[1F	.	.	1a
.	.	2f/	.
=124.	=124.	=124.	=124.
1F]	2r	1f	2r
.	2c\	.	2.a/
2r	1c	2r	.
.	.	.	4b\
[2F\	.	2f/	2cc\
=125	=125	=125	=125
4F\]	2c\	2.f/	2a/
4G\	.	.	.
2A\	2.A/	.	1cc
.	.	4g/	.
1F	.	2a/	.
.	4B\	.	.
.	4c\	[2f/	[2a/
.	4A/	.	.
=126.	=126.	=126.	=126.
1A	1c	4f/]	4a/]
.	.	4g/	4b\
.	.	4a/	4cc\
.	.	4f/	4a/
2G\	2d\	2g/	[1b
2E\	[2e\	[2g/	.
=127	=127	=127	=127
1E	2e\]	2g/]	2b\]
.	2B\	2e/	2g/
[1E	[1B	1e	1g
=128.	=128.	=128.	=128.
2E\]	1B]	2r	2r
2E\	.	1e	1g
1E	2r	.	.
.	[2B\	2e/	2g/
=129	=129	=129	=129
0G	2B\]	2e/	2g/
.	2B\	2.e/	2.g/
.	1B	.	.
.	.	4f/	4a/
.	.	4g/	4b\
.	.	4e/	4g/
=130.	=130.	=130.	=130.
2F\	0A	2f/	1a
2D\	.	1f	.
1D	.	.	2a/
.	.	[2d/	[2f/
=131	=131	=131	=131
1r	1a	2d/]	2f/]
.	.	4c/	2d/
.	.	4B/	.
[1D	2a\	1A	2d/
.	[2f\	.	[2dd\
=132.	=132.	=132.	=132.
1D]	2f\]	1r	2dd\]
.	2d\	.	1ff
1D	1d	[1a	.
.	.	.	4ee\
.	.	.	4dd\
=133	=133	=133	=133
1A	1e	1a]	1cc
2d\	2f\	2d/	2ff\
2c\	[2g\	2e/	[2ee\
=134.	=134.	=134.	=134.
1d	4g\]	2.f/	2ee\]
.	4f\	.	.
.	2d\	.	1dd
.	.	4g/	.
1A	1e	2a/	.
.	.	[2a/	2cc#i\
=135	=135	=135	=135
0D	0d	4a/]	0dd
.	.	4g/	.
.	.	4f/	.
.	.	4e/	.
.	.	1f	.
=136.	=136.	=136.	=136.
*M3/1	*M3/1	*M3/1	*M3/1
*met(3)	*met(3)	*met(3)	*met(3)
0A	1e	0.r	0.r
.	1f	.	.
1B	1d	.	.
=137	=137	=137	=137
1G	1e	0.r	0.r
1A	1f	.	.
1B	1d	.	.
=138.	=138.	=138.	=138.
1G	1.e	0.r	1r
1.A	.	.	1r
.	2d\	.	.
.	2c\	.	[1ee
2G\	2B\	.	.
=139	=139	=139	=139
2F\	0A	0a	1ee]
2E\	.	.	.
1D	.	.	1ff
1r	1r	1b	1dd
=140.	=140.	=140.	=140.
0.r	0.r	1g	1ee
.	.	1a	1ff
.	.	1b	1dd
=141	=141	=141	=141
0.r	1r	1g	1.ee
.	1r	1.a	.
.	.	.	2dd\
.	1e	.	2cc\
.	.	2g/	2b\
=142.	=142.	=142.	=142.
1r	1.f	2f/	0.a
.	.	2e/	.
1r	.	1d	.
.	2f\	.	.
1A	1f	1r	.
=143	=143	=143	=143
1B	1d	0.r	0.r
1G	1e	.	.
1A	1f	.	.
=144.	=144.	=144.	=144.
1B	1d	0.r	0.r
1G	1.e	.	.
[1A	.	.	.
.	2d\	.	.
=145	=145	=145	=145
2A\]	2c\	0.r	0.r
2G\	2B\	.	.
2F\	0A	.	.
2E\	.	.	.
[1D	.	.	.
=146.	=146.	=146.	=146.
2D\]	1.d	0.r	1r
2F\	.	.	.
0E	.	.	1r
.	2c#i\	.	.
.	1c#i	.	1ee
=147	=147	=147	=147
1D	1d	1a	1ff
1r	1r	1b	1dd
1r	1r	1g	1ee
=148.	=148.	=148.	=148.
0.r	0.r	1a	1ff
.	.	1b	1dd
.	.	1g	[1ee
=149	=149	=149	=149
0.r	0.r	1.a	2ee\]
.	.	.	2dd\
.	.	.	2cc\
.	.	2g/	2b\
.	.	2f/	1a
.	.	2e/	.
=150.	=150.	=150.	=150.
0.r	1r	1d	1.dd
.	1r	0e	.
.	.	.	2cc#i\
.	1e	.	1cc#i
=151	=151	=151	=151
1r	1.f	1d	1dd
1A	.	1a	1cc
.	2f\	.	.
1B	1d	1g	1dd
=152.	=152.	=152.	=152.
1G	1e	1g	1b
1A	1f	1f	1a
1B	1d	1f	1dd
=153	=153	=153	=153
1G	1e	1g	1b
1A	1c	2e/	1cc
.	.	2f/	.
2G\	[1d	2g/	2b\
2F\	.	2a/	2a/
=154.	=154.	=154.	=154.
1B-i	1d]	1g	1.dd
0A	0e	0a	.
.	.	.	4cc#i\
.	.	.	4bni\
.	.	.	1cc#i
=155	=155	=155	=155
1r	[0.dl	1.f	[0.ddl
0D	.	.	.
.	.	2g/	.
.	.	2a/	.
.	.	2b-i\	.
=156.	=156.	=156.	=156.
0.Dl	0.d]	0.al	0.dd]
==	==	==	==
*-	*-	*-	*-
!!!RDF**kern: l=long note in original notation
!!!RDF**kern: i=editorial accidental
!!!ENC:	Chris Gage 03-26-2013
!!!END:	2013/07/27/
!!!EED:	Jesse Rodin
!!!EEV:	2013/08/05/
!!!ONB:	Translated from MusicXML and edited on 2013/08/05/ by Craig Sapp
!!muse2ps: T^@{OPR}^u^@{ONM}{. }@{OTL}^C^@{COM}^i2I150v85,85,85,150Q8c90
